X: 7399
T: Clog De Champagne
R: barndance
M: 4/4
K: Gmajor
Bc|(3d^cd g>e d>BB>G|A>Bc>A E2 A>G|F>dc>A F>DE>F|(3GBA (3GFE D2 B>c|
(3d^cd g>e (3dcd B>G|A>Bc>A E2 A>G|F>d^c>d =c>AF>D|G2 B2 G2 (3ABc|
(3d^cd g>e d>BB>G|A>BA>G E>AG>E|F>d c2 E>cA>F|(3GBA (3GFE D2 B>c|
(3dBd g>e (3ddd B>G|A>Bc>A E2 G>E|F>dc>A F>DE>F|G2 B2 G2||
(3DEF|G>FG>B A>GE>D|G>DG>B d2 (3BdB|A>dc>A F>dc>A|G>FG>B d2 (3DEF|
G2 (3GAB A>GE>A|G>DG>B d2 (3BdB|A>Bc>A F>DE>F|G>gd>B G2 (3DEF|
G>D (3GGB A>G (3EEA|G>DG>B dG (3Bcd|A>dc>A F>dc>A|G>DG>B d>DE>F|
G>FG>B A>G E2|G>FG>B d4|A>dc>A F>dc>A|G2 (3ggg G2||

